!!!COM: Hugo Wolf
!!!CNT: Deutscher
!!!TXO: Deutsche 
!!!OTL: Heimweh
!!!ODT: 1888/09/29
!!!ONM: No. 12
!!!LYR: Joseph von Eichendorff
!!!ENC: Brian Bice
!!!YOR: 45 Songs on Poems of Goethe and Eichendorff, Dover Publications, 1995
!!NB: Vocal melody and text only encoded.
**kern	**silbe
*clefG2	*
*k[b-e-a-]	*
*M4/4	*
=2	=2
{4b-	{Wer
8b-	in
8b-	die
4b-	Frem-
8a-	-de
8g	will
=3	=3
2g	wan-
4f	-dern,
4cc	der
=4	=4
4b-	muss
8b-	mit
(16dd	der
16cc)	|
4.b-	Lieb-
8f#	-sten
=5	=5
(gq	gehn,
2b-)}	|}
4r	.
{4b-	{es
=6	=6
4dd-	ju-
8dd-	-beln
8dd-	und
4dd-	las-
8dd-	-sen
8dd-	die
=7	=7
2cc	an-
4cc	-dern
4cc	den
=8	=8
4ee-	Frem-
8ee-	-den
8ee-	al-
4dd	-lei-
4cc	-ne
=9	=9
2.a}	stehn.}
4r	.
=11	=11
2r	.
4r	.
{4een	{Was
=12	=12
4dd	wis-
8g	-set
8g	ihr,
4.g	dunk-
8f	-le
=13	=13
4en	Wip-
4g	-fel,
4r	.
8g	von
8an	der
=14	=14
4.b-	al-
8b-	-ten,
4.a-	scho2-
8cc	-nen
=15	=15
2g}	Zeit?}
4r	.
{8.g	{ach,
16g	die
=16	=16
4f#	Hei-
4bn	-mat
4a#	hin-
8bn	-ter
8cc#	den
=17	=17
2dd	Gip-
4cc#	-feln,
4bn	wie
=18	=18
4b-	liegt
8ee-	sie
8ee-	von
4.ee-	hier
8ee-	so
=19	=19
[1ee-	weit!
=20	=20
(4ee]-	|
4dd)}	|}
2r	.
=21	=21
2r	.
4r	.
{4gg	{Am
=22	=22
4ff	lieb-
8b-	-sten
8b-	be-
4b-	-tracht'
8b-	ich
8a-	die
=23	=23
4g	Ster-
4b-	-ne,
4r	.
4dd-	die
=24	=24
8cc	schie-
8cc	-nen,
8cc	wie
8cc	ich
4.cc	ging
8ddn	zu
=25	=25
2een}	ihr,}
4r	.
{4cc	{die
=26	=26
8.cc-	Nach-
16ff-	-ti-
4ff-	-gall
4ff-	ho2r'
8ee-	ich
8dd	so
=27	=27
2ee-	ger-
4b-	-ne,
4b-	sie
=28	=28
4cc-	sang
8ff-	vor
8ee-	der
4.ddn	Lieb-
8ddn	-sten
=29	=29
2.ee-}	Tu2r.}
4r	.
=31	=31
2r	.
4r	.
8r	.
{8b-	{Der
=32	=32
4b-	Mor-
8b-	-gen,
8b-	das
4b-	sit
8a-	mei-
8g	-ne
=33	=33
4g	Freu-
4f	-de!
4r	.
4cc	Da
=34	=34
4b-	steig'
8b-	ich
8cc	in
(4dd	stil-
8ee-)	|
8ff	-ler
=35	=35
2.gg}	Stund'}
{8ff	{auf
8ee-	den
=36	=36
4.aa	ho2ch-
8aa	-sten
4gg	Berg
8gg	in
8gg	die
=37	=37
4.gg-	Wei-
8gg-	-te,
4ff	gru2ss
4ee-	dich,
=38	=38
2ggn	Deutsch-
4ee-	-land,
4g	aus
=39	=39
[2cc	Her-
8cc]	|
(4d;	-zens-
8e-)	|
=40	=40
2e-}	-grund!}
2r	.
*-	*-
